X:1
T:Title
%%score { ( 1 3 ) | 2 }
L:1/8
Q:1/4=100
M:4/4
K:Ab
V:1 treble nm="Grand Piano"
V:3 treble 
V:2 bass 
V:1
 [Ec]2 [DG]2 [DB]>[DA] [DG]>[DF] | [CE]>[CE] [_C=D]>[CF] [=CE]4 | d2 =A2 c>B G>E | %3
w: August~Kraft * * * * *|||
 F>[EG] [EA]>[EB] [Ec]4 | [=Ec]>[EG] [FA]>[GB] [FA]2 [Fc]2 | [Ge]>[GB] [Ac]>[Bd] c4 | %6
w: |||
 c>c =d>c B>c d>e | e2 =d2 [Ge]4 | e2 c2 B2 A2 | c>[=EB] (3[FA][_EG][DF] E2 A2 | e2 c2 B2 A2 | %11
w: |||||
 [=Dc]>[DB] (3[DF][DG][DA] [EB]4 | [Ec]2 [EA]2 [Ed]2 [EB]2 | [Ee]>[EA] (3[Ec][Ed][Ae] [Af]4 | %14
w: |||
 [Ff]2 [FB]2 [Ec]2 [Ee]2 | [Ee]>[Ed] (3BcB [CA]4 |] %16
w: ||
V:2
 [A,,A,]2 [A,,E,]2 [A,,F,]>[A,,F,] [A,,F,]>[A,,G,] | [A,,A,]>[A,,A,] [A,,A,]>[A,,A,] [A,,A,]4 | %2
 [E,B,E]2 [E,_G,E]2 [E,=G,E]>[E,G,E] [E,B,E]>[E,G,] | [=D,A,B,]>[_D,B,] [C,A,]>[E,G,] [A,,A,]4 | %4
 [C,G,]>[C,C] [C,C]>[C,C] [F,C]2 [F,A,]2 | [E,B,]>[E,E] [E,E]>[E,E][K:treble] [A,EA]4 | %6
 [=A,E_G]>[A,EG] [A,EG]>[A,EG] [B,E=G]>[B,EG] [B,EG]>[B,EG] | [B,FA]2 [B,A]2[K:bass] [E,B,]4 | %8
 [A,CA]2 [A,E]2 [A,D]2 [A,C]2 | [A,E]>[C,A,] (3[D,D][D,D][D,A,] [A,,A,]4 | %10
 [A,CE]2 [A,E]2 [A,D]2 [A,C]2 | [B,,A,]>[B,,A,] (3[B,,B,][B,,B,][B,,F,] [E,G,]4 | %12
 [A,,A,]2 [C,A,]2 [B,,G,]2 [D,G,]2 | [C,A,]>[C,A,] (3[A,,A,][B,,G,][C,A,] [D,D]4 | %14
 [=D,A,]2 [D,A,]2 [E,A,]2 [C,A,]2 | [B,,G,]>[B,,G,] (3[E,G,E][E,G,E][E,G,D] [A,,A,]4 |] %16
V:3
 x8 | x8 | x8 | x8 | x8 | x8 | x8 | x8 | x8 | z4 C4 | x8 | x8 | x8 | x8 | x8 | x8 |] %16

